lib/brands/logos/autodesk.svg

<svg xmlns="http://www.w3.org/2000/svg" fill="none" aria-hidden="true" viewBox="0 0 250 47"><g id="Autodesk"><g id="Group"><g id="Vector"><path fill="#0E0D0F" d="M242.173 30.8878C242.173 31.9088 241.436 32.6461 240.437 32.6461C239.442 32.6461 238.701 31.9088 238.701 30.8878C238.701 29.8688 239.442 29.1295 240.439 29.1295C241.438 29.1295 242.173 29.8688 242.173 30.8878ZM242.479 30.8878C242.479 30.6196 242.427 30.3541 242.324 30.1063C242.222 29.8585 242.071 29.6333 241.882 29.4436C241.692 29.2539 241.467 29.1033 241.219 29.0006C240.972 28.8979 240.706 28.8449 240.438 28.8448C240.17 28.8446 239.904 28.8973 239.657 28.9998C239.409 29.1023 239.184 29.2526 238.994 29.4422C238.804 29.6317 238.654 29.8567 238.551 30.1044C238.448 30.3521 238.395 30.6176 238.395 30.8858C238.395 31.4274 238.61 31.9469 238.992 32.33C239.375 32.7132 239.894 32.9286 240.436 32.9288C240.978 32.9291 241.497 32.7142 241.88 32.3315C242.264 31.9487 242.479 31.4294 242.479 30.8878Z"/><path fill="#0E0D0F" d="M240.815 30.4123C240.815 30.712 240.565 30.7459 240.323 30.7459H240.109V30.0766H240.425C240.711 30.0766 240.815 30.2145 240.815 30.4123ZM241.322 31.9308L240.829 31.2375C240.763 31.1315 240.68 31.037 240.583 30.9577C240.939 30.9118 241.142 30.718 241.142 30.4123C241.142 30.0986 240.923 29.8128 240.497 29.8128H239.806V31.9308H240.109V30.9837C240.275 30.9837 240.339 31.0357 240.441 31.1895L240.953 31.9288H241.322V31.9308Z"/><path fill="#0E0D0F" d="M67.7691 14.9414L63.9008 23.9727H71.6714L67.7691 14.9414ZM79.6017 32.934H75.4117L73.1219 27.4873H62.4482L60.1264 32.934H56.0643L65.9968 10.2019H69.6692L79.6017 32.934ZM116.197 32.9347H112.197V14.0389H105.038V10.3624H123.676L122.139 14.0389H116.197V32.9347ZM192.13 14.0384H180.042V19.7789H187.784V23.3295H180.042V29.3277H192.136V32.9342H176.05V10.362H192.13V14.0384ZM220.473 32.935H216.69V10.3627H220.473V32.935Z"/><path fill="#0E0D0F" d="M204.39 13.6204C202.084 13.6204 200.124 14.3177 200.114 15.8483C200.102 17.6405 201.227 18.2619 205.473 19.6426C210.164 21.1851 212.656 22.7536 212.63 26.57C212.606 30.8718 209.281 33.3235 204.426 33.3235C200.989 33.3235 197.908 32.2105 195.558 30.1445L197.021 26.6039C199.153 28.3902 201.736 29.657 204.528 29.669C206.971 29.681 208.71 28.4901 208.71 26.7318C208.71 25.2592 207.859 24.2802 203.74 22.9754C199.017 21.4269 196.164 19.8124 196.188 15.9661C196.216 12.1398 199.804 9.96392 204.316 9.9859C208.831 10.0059 211.371 11.6583 211.757 11.8821L210.338 15.099C209.419 14.6035 207.397 13.6204 204.39 13.6204ZM225.348 21.289L235.452 10.3615H230.611L220.472 21.291L231.614 32.9398H236.521L225.348 21.291V21.289ZM135.902 29.681C131.466 29.681 128.229 26.0864 128.229 21.6507C128.229 17.2149 131.466 13.6184 135.902 13.6184C140.337 13.6184 143.578 17.2149 143.578 21.6507C143.578 26.0864 140.337 29.683 135.902 29.683V29.681ZM135.902 9.97391C134.368 9.97417 132.85 10.2764 131.434 10.8634C130.018 11.4503 128.731 12.3105 127.647 13.3948C125.458 15.5846 124.228 18.5543 124.229 21.6507C124.229 24.747 125.46 27.7163 127.65 29.9054C129.84 32.0945 132.809 33.324 135.906 33.3235C139.002 33.3229 141.971 32.0924 144.16 29.9026C146.349 27.7128 147.579 24.743 147.578 21.6467C147.578 18.5503 146.347 15.581 144.157 13.392C141.968 11.2029 138.998 9.97338 135.902 9.97391ZM160.318 29.3233L155.759 29.3273V14.042H160.334C164.77 14.042 167.993 17.185 167.993 21.6187C167.993 26.0544 164.75 29.3233 160.318 29.3233ZM160.318 10.3635H151.754V32.9358H160.318C166.762 32.9358 171.987 28.0645 171.987 21.6187C171.987 15.1709 166.762 10.3635 160.318 10.3635ZM100.678 22.9334C100.678 29.663 96.7293 33.2915 91.0028 33.2915C85.2783 33.2915 81.3321 29.663 81.3321 22.9334V10.3655H85.3283V23.409C85.3283 27.3572 87.646 29.675 91.0028 29.675C94.3636 29.675 96.6814 27.3572 96.6814 23.409V10.3635H100.678V22.9334Z"/></g><g id="Group_2"><path id="Vector_2" fill="url(#paint0_linear_93_14350)" d="M15.1847 42.9688C14.073 42.9688 13.4954 42.5494 12.9408 41.5755L7.87545 32.1856C7.5265 31.5127 7.52087 31.2885 7.52087 30.8039L15.4816 31.1548L17.3037 32.9767H33.272L20.0134 41.19C19.3672 41.5723 16.9092 42.9688 15.1847 42.9688V42.9688Z"/><path id="Vector_3" fill="url(#paint1_linear_93_14350)" d="M17.3111 32.9766H10.4251C8.3453 32.9766 7.52094 31.8888 7.52094 30.8038C7.52094 30.1171 7.74183 29.7427 8.04743 28.9797L18.0825 5.02348L18.1903 4.81318L18.3291 4.5975L18.6179 4.31606L19.0421 4.08944L19.6562 3.95417L20.7128 3.9815L27.6861 6.57347L25.3281 14.0093L17.3111 32.9766V32.9766Z"/><path id="Vector_4" fill="url(#paint2_linear_93_14350)" d="M37.5303 42.9674L21.6907 5.46952C21.4178 4.83109 20.9803 4.00735 19.8482 4.00735C18.8364 4.00735 18.3545 4.49704 18.0825 5.02358C18.2231 4.64388 18.6489 3.90627 19.8833 3.90627H30.8154C31.8228 3.90627 32.3061 4.49955 32.5264 5.04272L48.5443 42.9674H37.5303V42.9674Z"/></g></g></g><defs><linearGradient id="paint0_linear_93_14350" x1="10.7046" x2="15.5671" y1="37.0496" y2="36.0808" gradientUnits="userSpaceOnUse"><stop stop-color="#2B7A77"/><stop offset="0.51" stop-color="#4EBAA9"/><stop offset="1" stop-color="#5CC2B1"/></linearGradient><linearGradient id="paint1_linear_93_14350" x1="22.7385" x2="20.3255" y1="7.13105" y2="12.7978" gradientUnits="userSpaceOnUse"><stop stop-color="#236736"/><stop offset="0.493" stop-color="#6BA443"/><stop offset="1" stop-color="#86C146"/></linearGradient><linearGradient id="paint2_linear_93_14350" x1="25.1746" x2="28.721" y1="4.6337" y2="13.0791" gradientUnits="userSpaceOnUse"><stop stop-color="#29A5E3"/><stop offset="0.515" stop-color="#356EB9"/><stop offset="1" stop-color="#394DA5"/></linearGradient></defs></svg>

<svg xmlns="http://www.w3.org/2000/svg" fill="none" aria-hidden="true" viewBox="0 0 250 47"><g fill="#0E0D0F"><path d="M242.173 30.888c0 1.02-.737 1.758-1.736 1.758-.995 0-1.736-.737-1.736-1.758 0-1.02.741-1.759 1.738-1.759.999 0 1.734.74 1.734 1.759Zm.306 0a2.035 2.035 0 0 0-.597-1.444 2.047 2.047 0 0 0-2.225-.444 2.043 2.043 0 0 0 .779 3.929 2.04 2.04 0 0 0 2.043-2.041Z"/><path d="M240.815 30.412c0 .3-.25.334-.492.334h-.214v-.67h.316c.286 0 .39.139.39.336Zm.507 1.519-.493-.694a1.139 1.139 0 0 0-.246-.28c.356-.045.559-.239.559-.545 0-.313-.219-.6-.645-.6h-.691v2.119h.303v-.947c.166 0 .23.052.332.205l.512.74h.369v.002ZM67.77 14.941l-3.87 9.032h7.771L67.77 14.94Zm11.832 17.993h-4.19l-2.29-5.447H62.448l-2.322 5.447h-4.062l9.933-22.732h3.672l9.933 22.732Zm36.595 0h-4V14.04h-7.159v-3.677h18.638l-1.537 3.677h-5.942v18.896Zm75.933-18.896h-12.088v5.74h7.742v3.552h-7.742v5.998h12.094v3.606H176.05V10.362h16.08v3.676Zm28.343 18.897h-3.783V10.363h3.783v22.572Z"/><path d="M204.39 13.62c-2.306 0-4.266.698-4.276 2.228-.012 1.792 1.113 2.414 5.359 3.795 4.691 1.542 7.183 3.11 7.157 6.927-.024 4.302-3.349 6.754-8.204 6.754-3.437 0-6.518-1.113-8.868-3.18l1.463-3.54c2.132 1.786 4.715 3.053 7.507 3.065 2.443.012 4.182-1.179 4.182-2.937 0-1.473-.851-2.452-4.97-3.757-4.723-1.548-7.576-3.163-7.552-7.009.028-3.826 3.616-6.002 8.128-5.98 4.515.02 7.055 1.672 7.441 1.896l-1.419 3.217c-.919-.495-2.941-1.479-5.948-1.479Zm20.958 7.669 10.104-10.928h-4.841l-10.139 10.93 11.142 11.649h4.907l-11.173-11.65v-.002Zm-89.446 8.392c-4.436 0-7.673-3.595-7.673-8.03 0-4.436 3.237-8.033 7.673-8.033 4.435 0 7.676 3.597 7.676 8.033 0 4.435-3.241 8.032-7.676 8.032v-.002Zm0-19.707a11.671 11.671 0 0 0-8.255 3.42 11.673 11.673 0 0 0 .003 16.511 11.674 11.674 0 1 0 8.252-19.931Zm24.416 19.35-4.559.003V14.042h4.575c4.436 0 7.659 3.143 7.659 7.577 0 4.435-3.243 7.704-7.675 7.704Zm0-18.96h-8.564v22.572h8.564c6.444 0 11.669-4.872 11.669-11.317 0-6.448-5.225-11.255-11.669-11.255Zm-59.64 12.57c0 6.729-3.949 10.357-9.675 10.357-5.725 0-9.67-3.628-9.67-10.358V10.366h3.995v13.043c0 3.948 2.318 6.266 5.675 6.266 3.36 0 5.678-2.318 5.678-6.266V10.364h3.997v12.57Z"/></g><path fill="url(#a)" d="M15.185 42.969c-1.112 0-1.69-.42-2.244-1.394l-5.066-9.39c-.348-.672-.354-.897-.354-1.381l7.96.35 1.823 1.823h15.968L20.013 41.19c-.646.382-3.104 1.779-4.828 1.779Z"/><path fill="url(#b)" d="M17.311 32.977h-6.886c-2.08 0-2.904-1.088-2.904-2.173 0-.687.22-1.061.526-1.824L18.082 5.023l.108-.21.14-.215.288-.282.424-.227.614-.135 1.057.027 6.973 2.592-2.358 7.436-8.017 18.968Z"/><path fill="url(#c)" d="M37.53 42.967 21.69 5.47c-.272-.639-.71-1.463-1.842-1.463-1.012 0-1.493.49-1.765 1.017.14-.38.566-1.118 1.8-1.118h10.932c1.008 0 1.491.594 1.711 1.137l16.018 37.924H37.53Z"/><defs><linearGradient id="a" x1="10.705" x2="15.567" y1="37.05" y2="36.081" gradientUnits="userSpaceOnUse"><stop stop-color="#2B7A77"/><stop offset=".51" stop-color="#4EBAA9"/><stop offset="1" stop-color="#5CC2B1"/></linearGradient><linearGradient id="b" x1="22.738" x2="20.326" y1="7.131" y2="12.798" gradientUnits="userSpaceOnUse"><stop stop-color="#236736"/><stop offset=".493" stop-color="#6BA443"/><stop offset="1" stop-color="#86C146"/></linearGradient><linearGradient id="c" x1="25.175" x2="28.721" y1="4.634" y2="13.079" gradientUnits="userSpaceOnUse"><stop stop-color="#29A5E3"/><stop offset=".515" stop-color="#356EB9"/><stop offset="1" stop-color="#394DA5"/></linearGradient></defs></svg>
